icons/facebook-box-fill.svg

<svg viewBox="0 0 24 24" fill="currentColor" xmlns="http://www.w3.org/2000/svg"><path d="M15.4024 21V14.0344H17.7347L18.0838 11.3265H15.4024V9.59765C15.4024 8.81364 15.62 8.27934 16.7443 8.27934L18.1783 8.27867V5.85676C17.9302 5.82382 17.0791 5.75006 16.0888 5.75006C14.0213 5.75006 12.606 7.01198 12.606 9.32952V11.3265H10.2677V14.0344H12.606V21H4C3.44772 21 3 20.5523 3 20V4C3 3.44772 3.44772 3 4 3H20C20.5523 3 21 3.44772 21 4V20C21 20.5523 20.5523 21 20 21H15.4024Z"/></svg>

<svg xmlns="http://www.w3.org/2000/svg" viewBox="0 0 24 24">
    <g>
        <path fill="none" d="M0 0h24v24H0z"/>
        <path d="M15.402 21v-6.966h2.333l.349-2.708h-2.682V9.598c0-.784.218-1.319 1.342-1.319h1.434V5.857a19.19 19.19 0 0 0-2.09-.107c-2.067 0-3.482 1.262-3.482 3.58v1.996h-2.338v2.708h2.338V21H4a1 1 0 0 1-1-1V4a1 1 0 0 1 1-1h16a1 1 0 0 1 1 1v16a1 1 0 0 1-1 1h-4.598z"/>
    </g>
</svg>
